assets/panel__icon_light_on.svg

<svg height="24" width="24" xmlns="http://www.w3.org/2000/svg"><g fill="none" fill-rule="evenodd"><path d="m-1140-250h1366v768h-1366z" fill="none"/><path d="m0 0h24v24h-24z"/><g stroke-linecap="round" stroke-linejoin="round" stroke-width="2" transform="translate(1 1)"><circle cx="11" cy="11" r="5" stroke="#f5a623"/><path d="m11 0v2m0 18v2m-7.78-18.78 1.42 1.42m12.72 12.72 1.42 1.42m-18.78-7.78h2m18 0h2m-18.78 7.78 1.42-1.42m12.72-12.72 1.42-1.42" stroke="#ffd93e"/></g></g></svg>

<svg width="24" height="24" xmlns="http://www.w3.org/2000/svg">
  <g fill="none" fill-rule="evenodd">
    <path fill="none" d="M-1140-250H226v768h-1366z"/>
    <path d="M0 0h24v24H0z"/>
    <g transform="translate(1 1)" stroke-linecap="round" stroke-linejoin="round" stroke-width="2">
      <circle stroke="#F5A623" cx="11" cy="11" r="5"/>
      <path d="M11 0v2M11 20v2M3.22 3.22l1.42 1.42M17.36 17.36l1.42 1.42M0 11h2M20 11h2M3.22 18.78l1.42-1.42M17.36 4.64l1.42-1.42" stroke="#FFD93E"/>
    </g>
  </g>
</svg>
